assets/Department store/Flat/department_store_flat.svg

<svg width="32" height="32" viewBox="0 0 32 32" fill="none" xmlns="http://www.w3.org/2000/svg">
<path d="M29 30H20L19.3087 28.8363V15.99H28C28.55 15.99 28.99 16.44 28.99 16.98V30H29Z" fill="#D3D3D3"/>
<path d="M27 19.5V21.5C27 21.78 26.78 22 26.5 22.01H24.48C24.2 22.01 23.98 21.78 23.98 21.51V19.5C23.98 19.22 24.21 19 24.48 19H26.5C26.78 19 27 19.23 27 19.5ZM27 24.5V26.5C27 26.78 26.78 27 26.5 27.01H24.48C24.2 27.01 23.98 26.78 23.98 26.51V24.5C23.98 24.22 24.21 24 24.48 24H26.5C26.78 24 27 24.23 27 24.5ZM22 26.5V24.5C22 24.23 21.78 24 21.5 24H19.48C19.21 24 18.98 24.22 18.98 24.5V26.51C18.98 26.78 19.2 27.01 19.48 27.01H21.5C21.78 27 22 26.78 22 26.5ZM22 19.5V21.5C22 21.78 21.78 22 21.5 22.01H19.48C19.2 22.01 18.98 21.78 18.98 21.51V19.5C18.98 19.22 19.21 19 19.48 19H21.5C21.78 19 22 19.23 22 19.5Z" fill="#50E2FF"/>
<path d="M20 29.98H17.9818L11.5006 27.2288L5.0193 29.98H3V2.92C3 2.41 3.41 2 3.92 2H19.08C19.59 2 20 2.41 20 2.92V29.98Z" fill="#9B9B9B"/>
<path d="M18 30H16.97L15.6044 29.1551L14.0292 30H12.968L11.6415 29.1551L9.98339 30H8.95536L7.49623 29.1551L6.00998 30H4.97998V25.03C4.97998 24.46 5.43998 24 6.00998 24H16.97C17.54 24 18 24.46 18 25.03V30Z" fill="#3F5FFF"/>
<path d="M8.98 30V25.35C8.98 25.16 8.83 25 8.63 25H6.35C6.15 25 6 25.15 6 25.35V30H8.98ZM13 30V25.35C13 25.15 12.84 25 12.65 25H10.37C10.18 25 10.02 25.15 10.02 25.35V30H13ZM17.01 25.35V30H14.03V25.35C14.03 25.15 14.19 25 14.38 25H16.66C16.86 25 17.01 25.16 17.01 25.35Z" fill="#321B41"/>
<path d="M20 6H22V7H20V6ZM20 11H22V12H20V11Z" fill="#1C1C1C"/>
<path d="M26.19 14H22.8C22.36 14 22 13.64 22 13.19V4.81C22 4.36 22.36 4 22.81 4H26.2C26.64 4 27 4.36 27 4.81V13.2C27 13.64 26.64 14 26.19 14Z" fill="#3F5FFF"/>
<path d="M13.01 4.5V6.5C13.01 6.78 12.79 7 12.51 7H10.49C10.21 7 9.98999 6.77 9.98999 6.5V4.5C9.98999 4.22 10.22 4 10.49 4H12.51C12.79 4 13.01 4.23 13.01 4.5ZM13.01 11.5V9.5C13.01 9.23 12.79 9 12.51 9H10.49C10.22 9 9.98999 9.22 9.98999 9.5V11.5C9.98999 11.77 10.21 12 10.49 12H12.51C12.79 12 13.01 11.78 13.01 11.5ZM13.01 14.5V16.5C13.01 16.78 12.79 17 12.51 17.01H10.49C10.21 17.01 9.98999 16.78 9.98999 16.51V14.5C9.98999 14.22 10.22 14 10.49 14H12.51C12.79 14 13.01 14.23 13.01 14.5ZM13.01 19.5V21.5C13.01 21.78 12.79 22 12.51 22.01H10.49C10.21 22.01 9.98999 21.78 9.98999 21.51V19.5C9.98999 19.22 10.22 19 10.49 19H12.51C12.79 19 13.01 19.23 13.01 19.5ZM18.02 21.5V19.5C18.02 19.23 17.8 19 17.52 19H15.5C15.23 19 15 19.22 15 19.5V21.51C15 21.78 15.22 22.01 15.5 22.01H17.52C17.79 22 18.02 21.78 18.02 21.5ZM18.02 14.5V16.5C18.02 16.78 17.79 17 17.52 17.01H15.5C15.22 17.01 15 16.78 15 16.51V14.5C15 14.22 15.23 14 15.5 14H17.52C17.8 14 18.02 14.23 18.02 14.5ZM18.02 11.5V9.5C18.02 9.23 17.8 9 17.52 9H15.5C15.22 9 15 9.22 15 9.5V11.5C15 11.77 15.22 12 15.5 12H17.52C17.79 12 18.02 11.78 18.02 11.5ZM18.02 4.5V6.5C18.02 6.78 17.79 7 17.52 7H15.5C15.22 7 15 6.78 15 6.5V4.5C15 4.22 15.22 4 15.5 4H17.52C17.8 4 18.02 4.23 18.02 4.5ZM8.00999 21.5V19.5C8.00999 19.23 7.78999 19 7.50999 19H5.48999C5.21999 19 4.98999 19.22 4.98999 19.5V21.51C4.98999 21.78 5.20999 22.01 5.48999 22.01H7.50999C7.78999 22 8.00999 21.78 8.00999 21.5ZM8.00999 14.5V16.5C8.00999 16.78 7.78999 17 7.50999 17.01H5.48999C5.20999 17.01 4.98999 16.78 4.98999 16.51V14.5C4.98999 14.22 5.21999 14 5.48999 14H7.50999C7.78999 14 8.00999 14.23 8.00999 14.5ZM8.00999 11.5V9.5C8.00999 9.23 7.78999 9 7.50999 9H5.48999C5.21999 9 4.98999 9.22 4.98999 9.5V11.5C4.98999 11.77 5.20999 12 5.48999 12H7.50999C7.78999 12 8.00999 11.78 8.00999 11.5ZM8.00999 4.5V6.5C8.00999 6.78 7.78999 7 7.50999 7H5.48999C5.20999 7 4.98999 6.77 4.98999 6.5V4.5C4.98999 4.22 5.21999 4 5.48999 4H7.50999C7.78999 4 8.00999 4.23 8.00999 4.5Z" fill="#50E2FF"/>
</svg>

<svg xmlns="http://www.w3.org/2000/svg" width="32" height="32" fill="none"><path fill="#D3D3D3" d="M29 30h-9l-.691-1.164V15.99H28c.55 0 .99.45.99.99V30H29Z"/><path fill="#50E2FF" d="M27 19.5v2c0 .28-.22.5-.5.51h-2.02c-.28 0-.5-.23-.5-.5V19.5c0-.28.23-.5.5-.5h2.02c.28 0 .5.23.5.5Zm0 5v2c0 .28-.22.5-.5.51h-2.02c-.28 0-.5-.23-.5-.5V24.5c0-.28.23-.5.5-.5h2.02c.28 0 .5.23.5.5Zm-5 2v-2c0-.27-.22-.5-.5-.5h-2.02c-.27 0-.5.22-.5.5v2.01c0 .27.22.5.5.5h2.02c.28-.01.5-.23.5-.51Zm0-7v2c0 .28-.22.5-.5.51h-2.02c-.28 0-.5-.23-.5-.5V19.5c0-.28.23-.5.5-.5h2.02c.28 0 .5.23.5.5Z"/><path fill="#9B9B9B" d="M20 29.98h-2.018L11.5 27.229 5.019 29.98H3V2.92c0-.51.41-.92.92-.92h15.16c.51 0 .92.41.92.92v27.06Z"/><path fill="#3F5FFF" d="M18 30h-1.03l-1.366-.845L14.03 30h-1.061l-1.326-.845L9.982 30H8.955l-1.459-.845L6.01 30H4.98v-4.97c0-.57.46-1.03 1.03-1.03h10.96c.57 0 1.03.46 1.03 1.03V30Z"/><path fill="#321B41" d="M8.98 30v-4.65c0-.19-.15-.35-.35-.35H6.35c-.2 0-.35.15-.35.35V30h2.98ZM13 30v-4.65c0-.2-.16-.35-.35-.35h-2.28c-.19 0-.35.15-.35.35V30H13Zm4.01-4.65V30h-2.98v-4.65c0-.2.16-.35.35-.35h2.28c.2 0 .35.16.35.35Z"/><path fill="#1C1C1C" d="M20 6h2v1h-2V6Zm0 5h2v1h-2v-1Z"/><path fill="#3F5FFF" d="M26.19 14H22.8c-.44 0-.8-.36-.8-.81V4.81c0-.45.36-.81.81-.81h3.39c.44 0 .8.36.8.81v8.39c0 .44-.36.8-.81.8Z"/><path fill="#50E2FF" d="M13.01 4.5v2c0 .28-.22.5-.5.5h-2.02c-.28 0-.5-.23-.5-.5v-2c0-.28.23-.5.5-.5h2.02c.28 0 .5.23.5.5Zm0 7v-2c0-.27-.22-.5-.5-.5h-2.02c-.27 0-.5.22-.5.5v2c0 .27.22.5.5.5h2.02c.28 0 .5-.22.5-.5Zm0 3v2c0 .28-.22.5-.5.51h-2.02c-.28 0-.5-.23-.5-.5V14.5c0-.28.23-.5.5-.5h2.02c.28 0 .5.23.5.5Zm0 5v2c0 .28-.22.5-.5.51h-2.02c-.28 0-.5-.23-.5-.5V19.5c0-.28.23-.5.5-.5h2.02c.28 0 .5.23.5.5Zm5.01 2v-2c0-.27-.22-.5-.5-.5H15.5c-.27 0-.5.22-.5.5v2.01c0 .27.22.5.5.5h2.02c.27-.01.5-.23.5-.51Zm0-7v2c0 .28-.23.5-.5.51H15.5c-.28 0-.5-.23-.5-.5V14.5c0-.28.23-.5.5-.5h2.02c.28 0 .5.23.5.5Zm0-3v-2c0-.27-.22-.5-.5-.5H15.5c-.28 0-.5.22-.5.5v2c0 .27.22.5.5.5h2.02c.27 0 .5-.22.5-.5Zm0-7v2c0 .28-.23.5-.5.5H15.5c-.28 0-.5-.22-.5-.5v-2c0-.28.22-.5.5-.5h2.02c.28 0 .5.23.5.5Zm-10.01 17v-2c0-.27-.22-.5-.5-.5H5.49c-.27 0-.5.22-.5.5v2.01c0 .27.22.5.5.5h2.02c.28-.01.5-.23.5-.51Zm0-7v2c0 .28-.22.5-.5.51H5.49c-.28 0-.5-.23-.5-.5V14.5c0-.28.23-.5.5-.5h2.02c.28 0 .5.23.5.5Zm0-3v-2c0-.27-.22-.5-.5-.5H5.49c-.27 0-.5.22-.5.5v2c0 .27.22.5.5.5h2.02c.28 0 .5-.22.5-.5Zm0-7v2c0 .28-.22.5-.5.5H5.49c-.28 0-.5-.23-.5-.5v-2c0-.28.23-.5.5-.5h2.02c.28 0 .5.23.5.5Z"/></svg>
